picto/multi-purpose-area-framed.svg

<svg class="color-immutable" width="30" height="30" viewBox="0 0 30 30" fill="none" xmlns="http://www.w3.org/2000/svg"><path d="M30.0021 0H0.0020752V30H30.0021V0Z" fill="#2D327D"/><path d="M25.5021 3C26.3271 3 27.0021 3.675 27.0021 4.5V25.5C27.0021 26.325 26.3271 27 25.5021 27H4.5021C3.6771 27 3.0021 26.325 3.0021 25.5V4.5C3.0021 3.675 3.6771 3 4.5021 3H25.5021ZM25.5 2.625H4.5C3.46613 2.625 2.625 3.46613 2.625 4.5V25.5C2.625 26.5339 3.46613 27.375 4.5 27.375H25.5C26.5339 27.375 27.375 26.5339 27.375 25.5V4.5C27.375 3.46613 26.5339 2.625 25.5 2.625Z" fill="white"/><path d="M24 23.7H6V24H24V23.7Z" fill="white"/><path d="M6 10.275L8.46675 19.8H8.4675C8.58075 20.19 8.94075 20.475 9.3675 20.475H10.5285L7.35 10.275H6Z" fill="white"/><path d="M11.475 14.475H10.5C10.2938 14.475 10.125 14.6437 10.125 14.85V18.171L10.8428 20.475H11.1C11.5125 20.475 11.85 20.1375 11.85 19.725V14.85C11.85 14.6437 11.6813 14.475 11.475 14.475Z" fill="white"/><path d="M8.175 8.925C8.33325 8.75925 8.325 8.6805 8.325 8.52825V6.375C8.325 6.16875 8.15625 6 7.95 6H6.375C6.16875 6 6 6.16875 6 6.375V9.825H7.35L8.175 8.925Z" fill="white"/><path d="M12.15 11.175V11.175L11.7749 11.175L12.6633 10.2983H12.0642L10.9625 11.4L12.0642 12.5017H12.6633L11.7749 11.625H12.15V11.625C13.6387 11.625 14.8498 12.8369 14.8498 14.3265H15.2998C15.2998 12.5887 13.8868 11.175 12.15 11.175Z" fill="white"/></svg>

<svg class="color-immutable" width="30" height="30" viewBox="0 0 30 30" fill="none" xmlns="http://www.w3.org/2000/svg"><g clip-path="url(#a)"><path d="M30.002 0h-30v30h30V0Z" fill="#2D327D"/><path d="M25.502 3c.825 0 1.5.675 1.5 1.5v21c0 .825-.675 1.5-1.5 1.5h-21c-.825 0-1.5-.675-1.5-1.5v-21c0-.825.675-1.5 1.5-1.5h21Zm-.002-.375h-21A1.877 1.877 0 0 0 2.625 4.5v21c0 1.034.841 1.875 1.875 1.875h21a1.877 1.877 0 0 0 1.875-1.875v-21A1.877 1.877 0 0 0 25.5 2.625Z" fill="#fff"/><path d="M24 23.7H6v.3h18v-.3ZM6 10.275 8.467 19.8c.114.39.474.675.9.675h1.161l-3.178-10.2H6ZM11.475 14.475H10.5a.376.376 0 0 0-.375.375v3.321l.718 2.304h.257c.412 0 .75-.338.75-.75V14.85a.376.376 0 0 0-.375-.375ZM8.175 8.925c.158-.166.15-.245.15-.397V6.375A.376.376 0 0 0 7.95 6H6.375A.376.376 0 0 0 6 6.375v3.45h1.35l.825-.9ZM12.15 11.175h-.375l.888-.877h-.599L10.963 11.4l1.101 1.102h.6l-.89-.877h.376c1.489 0 2.7 1.212 2.7 2.701h.45a3.154 3.154 0 0 0-3.15-3.151Z" fill="#fff"/></g><defs><clipPath id="a"><path fill="#fff" d="M0 0h30v30H0z"/></clipPath></defs></svg>
